X:1
T:Title
%%score { ( 1 3 5 ) | ( 2 4 ) }
L:1/8
M:4/4
K:F
V:1 treble nm="Grand Piano"
V:3 treble 
V:5 treble 
V:2 bass 
V:4 bass 
V:1
 z4 z2[Q:1/4=100] C2 | A4 c2 A2 | A3 [EG] z D z _E | d4 A2 A2 |[M:3/4] B6 |[M:1/4] B2 | %6
[M:4/4] B4 A2 G2 | c4 A2 A2 | z F z G d-[Gd-][Ad]e |[M:3/4] [EGc]6 |[M:1/4] [EGc]G, | %11
[M:4/4] .[FAd]2 .[FAc]2 A2 GF | [DG]2[K:bass] [F,DF]2 [F,D]3 [G,B,C] | %13
 [F,F]-[F,-CF-][F,CF][K:treble][CG] FFGF | z4 z2 [Gc]2 | .[FAd]2 .[FAc]2 .[FA]2 GF | %16
 [DG]2 [DF]2 D3 E | F2 Ac [EA]2 [EG]2 |[M:3/4] [CF]6 |[M:1/4] [EGc]G, | %20
[M:4/4] .[FAd]2 .[FAc]2 A2 GF | [DG]2[K:bass] [F,DF]2 [F,D]3 [G,B,C] | %22
 [F,F]-[F,-CF-][F,CF][K:treble][CG] FFGF | z4 z2 [Gc]2 | .[FAd]2 .[FAc]2 .[FA]2 GF | %25
 [DG]2[K:bass] [F,DF]2 [F,D]3[K:treble] [G,CE] |[M:5/4] [A,DF]2 .[CFA]2 [=Bd]3 [EGc]3 | %27
[M:3/4] [A,CF]6 |] %28
V:2
 z8 | F,4 z C z C | z B,^C^C, z A, z A, | z[K:treble] FF[FB][K:bass] z D z D |[M:3/4] z D z D z C | %5
[M:1/4] z D |[M:4/4] z[K:treble] [^CE][CE][CEG][K:bass] z =C z C | %7
 z[K:treble] [CF][CF][CFA][K:bass] z C z D | z[K:treble] [=B,D] z [DF][K:bass] z2 z =B | %9
[M:3/4] C,E, G,B, DC |[M:1/4] [C,B,]2 |[M:4/4] [F,D]2 [F,C]2 [F,A,F]2 [F,D]-[F,A,D] | %12
 [B,,F,]2 B,,2 B,,3 B,, | z A,A,[A,,F,] z D [G,=B,D]2 | z D,E,F, G,A, [C,B,]2 | z4 z2 .B,2 | %16
 [B,,F,]2 [B,,F,]2 [B,,F,]3 [C,G,C] | [F,A,C]2 [F,CF]2 [C,C]2 [C,B,]2 |[M:3/4] [F,A,]6 | %19
[M:1/4] [C,B,]2 |[M:4/4] [F,D]2 [F,C]2 [F,A,F]2 [F,D]-[F,A,D] | [B,,F,]2 B,,2 B,,3 B,, | %22
 z A,A,[A,,F,] z D [G,=B,D]2 | z D,E,F, G,A, [C,B,]2 | z4 z2 .B,2 | [B,,F,]2 B,,2 B,,3 C, | %26
[M:5/4] F,2 z[K:treble] c [G,=B,F]3[K:bass] [C,_B,]3 |[M:3/4] [F,,F,]6 |] %28
V:3
 x8 | z CFA z F z F | z4 F2 F2 | z BBd z ^F z F |[M:3/4] z G z F z E |[M:1/4] z F | %6
[M:4/4] z GGB z F z E | z AAc z F z F | G2 =B2 .B2 z2 |[M:3/4] x6 |[M:1/4] x2 |[M:4/4] x8 | %12
 x2[K:bass] x6 | .[A,C]2 z2[K:treble] [=B,A]2 z2 | [CEc]6 z C | x8 | x8 | x8 |[M:3/4] x6 | %19
[M:1/4] x2 |[M:4/4] x8 | x2[K:bass] x6 | .[A,C]2 z2[K:treble] [=B,A]2 z2 | [CEc]6 z C | x8 | %25
 x2[K:bass] x5[K:treble] x |[M:5/4] x10 |[M:3/4] x6 |] %28
V:4
 x8 | z4 A,2 F,2 | C,4 D,2 ^C,2 | B,,4[K:treble][K:bass] D,2 ^F,2 |[M:3/4] G,2 z2 E,2 | %5
[M:1/4] D,2 |[M:4/4] ^C,4[K:treble][K:bass] =C,2 B,,2 | A,,4[K:treble][K:bass] F,,2 D,2 | %8
 G,,4[K:treble][K:bass] [=B,,G,]4 |[M:3/4] x6 |[M:1/4] x2 |[M:4/4] z4 z2 .B,2 | x8 | A,,4 G,,2 z2 | %14
 C,6 z2 | [F,D]2 [F,C]2 [F,A,]2 [F,D]-[F,A,D] | x8 | x8 |[M:3/4] x6 |[M:1/4] x2 | %20
[M:4/4] z4 z2 .B,2 | x8 | A,,4 G,,2 z2 | C,6 z2 | [F,D]2 [F,C]2 [F,A,]2 [F,D]-[F,A,D] | x8 | %26
[M:5/4] z2 D,2[K:treble] z2 z4[K:bass] |[M:3/4] x6 |] %28
V:5
 x8 | x8 | x8 | x8 |[M:3/4] z2 F,2 z2 |[M:1/4] x2 |[M:4/4] x8 | x8 | x8 |[M:3/4] x6 |[M:1/4] x2 | %11
[M:4/4] x8 | x2[K:bass] x6 | x3[K:treble] x5 | x8 | x8 | x8 | x8 |[M:3/4] x6 |[M:1/4] x2 | %20
[M:4/4] x8 | x2[K:bass] x6 | x3[K:treble] x5 | x8 | x8 | x2[K:bass] x5[K:treble] x |[M:5/4] x10 | %27
[M:3/4] x6 |] %28

